images/youtube.svg

<svg fill="none" height="21" viewBox="0 0 29 21" width="29" xmlns="http://www.w3.org/2000/svg"><path d="m28.3349 3.54229c-.1644-.61219-.4867-1.17046-.9346-1.61895s-1.0058-.77148-1.6178-.936621c-2.2526-.60586-11.2825-.60586-11.2825-.60586s-9.02988 0-11.28252.602637c-.61224.164614-1.17039.487414-1.6184.935984-.44801.44858-.770106 1.00714-.933943 1.61958-.6026371 2.25586-.602637 6.96094-.602637 6.96094s-.0000001 4.7051.602637 6.9577c.331933 1.244 1.311623 2.2236 2.552343 2.5556 2.25264.6058 11.28252.6058 11.28252.6058s9.0299 0 11.2825-.6058c1.244-.332 2.2204-1.3116 2.5524-2.5556.6026-2.2526.6026-6.9577.6026-6.9577s0-4.70508-.6026-6.95771zm-16.7031 11.27611v-8.63676l7.4766 4.28616z" fill="#061323"/></svg>

<svg width="29" height="21" viewBox="0 0 29 21" fill="none" xmlns="http://www.w3.org/2000/svg">
<path d="M28.3349 3.54229C28.1705 2.9301 27.8482 2.37183 27.4003 1.92334C26.9524 1.47485 26.3945 1.15186 25.7825 0.986719C23.5299 0.380859 14.5 0.380859 14.5 0.380859C14.5 0.380859 5.47012 0.380859 3.21748 0.983496C2.60524 1.14811 2.04709 1.47091 1.59908 1.91948C1.15107 2.36806 0.828974 2.92662 0.665137 3.53906C0.0624999 5.79492 0.0625 10.5 0.0625 10.5C0.0625 10.5 0.0624999 15.2051 0.665137 17.4577C0.99707 18.7017 1.97676 19.6813 3.21748 20.0133C5.47012 20.6191 14.5 20.6191 14.5 20.6191C14.5 20.6191 23.5299 20.6191 25.7825 20.0133C27.0265 19.6813 28.0029 18.7017 28.3349 17.4577C28.9375 15.2051 28.9375 10.5 28.9375 10.5C28.9375 10.5 28.9375 5.79492 28.3349 3.54229ZM11.6318 14.8184V6.18164L19.1084 10.4678L11.6318 14.8184Z" fill="#061323"/>
</svg>
